X: 29013
T: Ne'er Wed An Old Man
R: waltz
M: 3/4
K: Gmajor
D2|:G2 GA Bc|d2e2 Ac|B2 G2 AG|F2 D2D2|GF GA Bc|
d2 e2 Ac|B2 G2 F2|1 G4 D2:|2 G3 def||g2 e2 g2|f2 d2 B2|e3 cAG|
G2 F2 ED|g2 e2 g2|f2 d2 B2|B2 e2 ^d2|e3 def|g2 e2 g2|f2 d2 B2|
e3 cAG|GF ED EF|GF GA Bc|d2 e2 Ac|B2 G2 F2|G6||

